X:1
T:Becky Murray
L:1/8
M:2/2
I:linebreak $
K:D
V:1 treble 
V:1
 A | F2 DB/c/ dA B/A/G/F/ | =CA/B/ =c>GE>A | F2 DB/c/ d>edA | F>E D<A d/d/d d<f |$ %5
 F2 DB/c/ d/c/B/A/ B/A/G/F/ | E2 =CA/B/ c>G E<A | F2 DB/c/ d<AB<G | F>E D<A d/d/dd :: e |$ %10
 d<d f>d g>ef>d | e<e f>d g>e=c>e | d>ef>g a>ba>f | g<e a>g f>ed>e |$ d<d f>d g>ef>d | %15
 e<e f>d ge =cg | a>fg>e f>de>c | d/c/B/A/ dA F>DD :| %18
